X:160
T:Trip to Sligo
Z: id:dc-jig-137
M:6/8
L:1/8
K:E Minor
B,|E2e BGE|D2d AFD|E2e BGE|GFE e2f|!
gfe dcB|ABG FED|EFG ABc|BGF E2:|!
B|eBe gfe|dAd fed|eBe gfe|faf gfe|!
faf gfe|dcB AFD|EFG ABc|BGF E2:|!

